X:471
T:Reel 471
M:4/4
K:Dmaj
L:1/8
 (3DFF |G2FG E2DC|A,D (3DCB, A,2FG|AFGE FDEC|DB,A,B, D2FE|DGFD A,2FG|AFGF F2EF|DFGF FEDE|FGEF D2|A,2|D2FE F2FA|AFFG E2 (3EBc |dBcA BGAF|EDEF E2 (3ABc |dcdA BcdB|AFDF E2FE|DCDE FGAd|BGEF G2|
